svg/u1f4b2.svg

<svg viewBox="0 0 128 128" xmlns="http://www.w3.org/2000/svg">
  <path d="M59.77,3.68c-1.58,0.01-2.39,0.17-2.39,3.76s0.34,113.87,0.34,115.07c0,1.2,1.2,1.71,3.25,1.71 c2.05,0,7.01,0,8.38,0s1.88-0.85,1.71-3.08c-0.17-2.22-0.19-113.53-0.19-114.89s-0.62-2.43-2.81-2.51 C66.28,3.69,61.65,3.67,59.77,3.68z" fill="#02AB47"/>
  <path d="M45.39,43.95c0,0-0.25-6.26,4.17-10.31c4.07-3.73,7.87-3.45,7.87-3.45l0.04,6.21 c0,0,2.32-0.8,6.24-0.64s7.15,1.53,7.15,1.53v-6.52c0,0,2.17-0.1,5.45,3.76c1.64,1.93,2.99,5.95,3.44,8.05 c0.57,2.7,1.56,3.95,4.17,4.14c2.61,0.19,4.59,0.17,6.2,0.11c2.29-0.08-4.89-12.55-4.89-12.55S77.21,22.19,74.6,22.11 c-2.62-0.08-18.82,0.33-20.37,1.15c-1.55,0.82-11.7,7.94-11.7,7.94l-1.39,11.04c0,0,3.85,4.5,3.85,4.17 C44.98,46.08,45.39,43.95,45.39,43.95z" fill="#2F7C31"/>
  <path d="M37.6,43.95l-7.64-6c0,0-1.63,12.38,4.54,19.84c4.52,5.45,9.82,7.69,14.48,9.74 c4.36,1.91,8.57,3.23,8.57,3.23l0.02,7.32l13.35,7.1l-0.02-9.61c0,0,5.07,2.75,7.61,5.45c2.54,2.7,2.78,6.05,2.86,8.18 s-0.98,5.48-0.98,5.48l-1.47,6.54l17.02-17.18L55.78,57.37L37.6,43.95z" fill="#2F7C31"/>
  <path d="M30.89,82.37c0,0-2.04,1.75-1.45,6.5c0.54,4.41,3.03,11.29,10.47,17.34 c7.44,6.05,17.8,7.21,17.8,7.21v5.05l13.3-0.02l-0.02-5.01c0,0,7.94-0.33,14.65-4.59c7.02-4.45,12.15-13.53,11.86-22.06 c-0.1-2.99-2-2.52-2-2.52s-24.42,21.12-26.06,21.28s-17.51-2.62-17.51-2.62L37.13,86.82L30.89,82.37z" fill="#2F7C31"/>
  <path d="M37.13,80.6c-4.98,0.49-6.71,1.47-6.79,2.95c-0.08,1.47,4.25,27.18,34.52,26.75 c29.04-0.41,32.48-18.08,32.72-24.95c0.3-8.26-4.58-15.13-15.54-21.6c-8.17-4.81-27.9-12.03-31.17-14.07 c-3.01-1.88-7.2-6.05-6.63-12.27c0.57-6.22,7.36-12.35,19.88-12.27c12.52,0.08,17.45,8.8,18.41,11.37 c1.54,4.15,1.24,9.56,3.52,10.27c1.06,0.33,4.17,0.21,5.97-0.04c1.8-0.25,4.36-1.63,4.5-5.24c0.16-4.17-4.17-27.49-33.13-27.24 c-27.65,0.23-34.46,17.19-33.39,26.92C31,50.41,38.52,59.09,50.63,64c12.11,4.91,33.54,10.88,33.3,21.92 c-0.22,9.91-11.71,13.41-21.19,12.93c-9.57-0.49-14.81-6.05-16.77-12.6C44.08,79.98,40.48,80.28,37.13,80.6z" fill="#02AB47"/>
  <path d="M41.72,83.73c-1.02-1.9-7.84-1.61-8.71,1.61c-0.88,3.21,2.24,8.22,4.33,7.79 c2.87-0.6,0.44-4.04,1.56-5.35C40.01,86.45,42.98,86.08,41.72,83.73z" fill="#7ADC8A"/>
  <path d="M63.62,5.39C61.63,5.34,59.4,5.32,59.28,8c-0.11,2.59,0.07,4.58,1.07,4.68 c1.14,0.12,2.75-2.34,3.45-3.41C64.7,7.93,65.77,5.45,63.62,5.39z" fill="#7ADC8A"/>
  <path d="M48.33,21.17c-0.77-1.11-5.03-2-10.94,5.3s-3.73,11.15-2.38,11.32c1.84,0.23,2.86-1.28,3.99-3.76 c1.61-3.53,3.53-5.68,6.53-7.95C48.09,24.14,49.65,23.08,48.33,21.17z" fill="#7ADC8A"/>
</svg>

<svg viewBox="0 0 128 128" xmlns="http://www.w3.org/2000/svg">
  <defs/>
  <path d="M59.77,3.68 C58.19,3.69 57.38,3.85 57.38,7.44 C57.38,11.03 57.72,121.31 57.72,122.51 C57.72,123.71 58.92,124.22 60.97,124.22 C63.02,124.22 67.98,124.22 69.35,124.22 C70.72,124.22 71.23,123.37 71.06,121.14 C70.89,118.92 70.87,7.61 70.87,6.25 C70.87,4.89 70.25,3.82 68.06,3.74 C66.28,3.69 61.65,3.67 59.77,3.68 Z" fill="#02AB47"/>
  <path d="M45.39,43.95 C45.39,43.95 45.14,37.69 49.56,33.64 C53.63,29.91 57.43,30.19 57.43,30.19 L57.47,36.4 C57.47,36.4 59.79,35.6 63.71,35.76 C67.63,35.92 70.86,37.29 70.86,37.29 L70.86,30.77 C70.86,30.77 73.03,30.67 76.31,34.53 C77.95,36.46 79.3,40.48 79.75,42.58 C80.32,45.28 81.31,46.53 83.92,46.72 C86.53,46.91 88.51,46.89 90.12,46.83 C92.41,46.75 85.23,34.28 85.23,34.28 C85.23,34.28 77.21,22.19 74.6,22.11 C71.98,22.03 55.78,22.44 54.23,23.26 C52.68,24.08 42.53,31.2 42.53,31.2 L41.14,42.24 C41.14,42.24 44.99,46.74 44.99,46.41 C44.98,46.08 45.39,43.95 45.39,43.95 Z" fill="#2F7C31"/>
  <path d="M37.6,43.95 L29.96,37.95 C29.96,37.95 28.33,50.33 34.5,57.79 C39.02,63.24 44.32,65.48 48.98,67.53 C53.34,69.44 57.55,70.76 57.55,70.76 L57.57,78.08 L70.92,85.18 L70.9,75.57 C70.9,75.57 75.97,78.32 78.51,81.02 C81.05,83.72 81.29,87.07 81.37,89.2 C81.45,91.33 80.39,94.68 80.39,94.68 L78.92,101.22 L95.94,84.04 L55.78,57.37 L37.6,43.95 Z" fill="#2F7C31"/>
  <path d="M30.89,82.37 C30.89,82.37 28.85,84.12 29.44,88.87 C29.98,93.28 32.47,100.16 39.91,106.21 C47.35,112.26 57.71,113.42 57.71,113.42 L57.71,118.47 L71.01,118.45 L70.99,113.44 C70.99,113.44 78.93,113.11 85.64,108.85 C92.66,104.4 97.79,95.32 97.5,86.79 C97.4,83.8 95.5,84.27 95.5,84.27 C95.5,84.27 71.08,105.39 69.44,105.55 C67.8,105.71 51.93,102.93 51.93,102.93 L37.13,86.82 L30.89,82.37 Z" fill="#2F7C31"/>
  <path d="M37.13,80.6 C32.15,81.09 30.42,82.07 30.34,83.55 C30.26,85.02 34.59,110.73 64.86,110.3 C93.9,109.89 97.34,92.22 97.58,85.35 C97.88,77.09 93,70.22 82.04,63.75 C73.87,58.94 54.14,51.72 50.87,49.68 C47.86,47.8 43.67,43.63 44.24,37.41 C44.81,31.19 51.6,25.06 64.12,25.14 C76.64,25.22 81.57,33.94 82.53,36.51 C84.07,40.66 83.77,46.07 86.05,46.78 C87.11,47.11 90.22,46.99 92.02,46.74 C93.82,46.49 96.38,45.11 96.52,41.5 C96.68,37.33 92.35,14.01 63.39,14.26 C35.74,14.49 28.93,31.45 30,41.18 C31,50.41 38.52,59.09 50.63,64 C62.74,68.91 84.17,74.88 83.93,85.92 C83.71,95.83 72.22,99.33 62.74,98.85 C53.17,98.36 47.93,92.8 45.97,86.25 C44.08,79.98 40.48,80.28 37.13,80.6 Z" fill="#02AB47"/>
  <path d="M41.72,83.73 C40.7,81.83 33.88,82.12 33.01,85.34 C32.13,88.55 35.25,93.56 37.34,93.13 C40.21,92.53 37.78,89.09 38.9,87.78 C40.01,86.45 42.98,86.08 41.72,83.73 Z" fill="#7ADC8A"/>
  <path d="M63.62,5.39 C61.63,5.34 59.4,5.32 59.28,8 C59.17,10.59 59.35,12.58 60.35,12.68 C61.49,12.8 63.1,10.34 63.8,9.27 C64.7,7.93 65.77,5.45 63.62,5.39 Z" fill="#7ADC8A"/>
  <path d="M48.33,21.17 C47.56,20.06 43.3,19.17 37.39,26.47 C31.48,33.77 33.66,37.62 35.01,37.79 C36.85,38.02 37.87,36.51 39,34.03 C40.61,30.5 42.53,28.35 45.53,26.08 C48.09,24.14 49.65,23.08 48.33,21.17 Z" fill="#7ADC8A"/>
</svg>
